assets/images/script/l-3-mid.svg

<svg fill="none" height="152" viewBox="0 0 221 152" width="221" xmlns="http://www.w3.org/2000/svg"><path d="m22.3078 40.3116c10.3419 7.3488 34.0427-7.0022 40.2496-16.8368 4.8865-7.7426-1.5572-14.88084-7.2007-17.98484-12.014-6.60796-27.7978-.14607-38.157 8.03574-8.53433 6.7404-15.12297 18.8935-14.09355 31.99 1.39067 17.6925 18.17845 21.4853 29.41785 16.9899 17.596-7.0378 31.8258-25.8927 47.3887-37.6533 16.1824-12.2287 38.5933-24.368735 58.0973-20.66337 25.299 4.80645-30.021 49.71987-30.218 57.32177-.175 6.7294 13.208 2.9893 25.125 11.6685 13.153 10.9656 28.844 34.5448 21.956 54.9488-2.89 8.563-15.467 24.57-24.248 19.746-6.486-3.564-3.932-18.863-2.831-24.797 3.055-16.466 9.74-32.2166 18.894-44.6937 14.847-20.2381 36.398-34.9129 57.42-42.3982 2.784-.9913 22.13-6.0099 9.847-.9184" stroke="#000" stroke-linecap="round" stroke-width="5"/></svg>

<svg width="221" height="152" viewBox="0 0 221 152" fill="none" xmlns="http://www.w3.org/2000/svg">
<path d="M22.3078 40.3116C32.6497 47.6604 56.3505 33.3094 62.5574 23.4748C67.4439 15.7322 61.0002 8.59396 55.3567 5.48996C43.3427 -1.118 27.5589 5.34389 17.1997 13.5257C8.66537 20.2661 2.07673 32.4192 3.10615 45.5157C4.49682 63.2082 21.2846 67.001 32.524 62.5056C50.12 55.4678 64.3498 36.6129 79.9127 24.8523C96.0951 12.6236 118.506 0.483565 138.01 4.18893C163.309 8.99538 107.989 53.9088 107.792 61.5107C107.617 68.2401 121 64.5 132.917 73.1792C146.07 84.1448 161.761 107.724 154.873 128.128C151.983 136.691 139.406 152.698 130.625 147.874C124.139 144.31 126.693 129.011 127.794 123.077C130.849 106.611 137.534 90.8604 146.688 78.3833C161.535 58.1452 183.086 43.4704 204.108 35.9851C206.892 34.9938 226.238 29.9752 213.955 35.0667" stroke="black" stroke-width="5" stroke-linecap="round"/>
</svg>
